X:1
T:Title
%%score 1 { ( 2 4 ) | 3 }
L:1/8
Q:1/4=95
M:2/4
K:D
V:1 treble nm="Grand Piano, Unnamed-000"
V:2 treble nm="Choir Pad, Unnamed-001"
V:4 treble 
V:3 bass 
V:1
 [Fd]2 [Ac]>[GB] | [FA]3 [EG] | [DF]2 [CE]2 | D3 A | [GB]3 [GB] | [Ec]3 [Ec] | [Fd]3 [Fd] | %7
w: By~G.~F.Handel~&~Lowell~Mason * *|||||||
 [Fd][Ac] [GB][FA] | [FA]>[EG] [FA][Fd] | [Fd][Ac] [GB][FA] | [FA]>[EG] [DF][DF] | %11
w: ||||
 [DF][DF] [DF][DF]/[EG]/ | [FA]3 [EG]/[DF]/ | [CE][CE] [CE][CE]/[DF]/ | [EG]3 [DF]/[CE]/ | %15
w: ||||
 D [Fd]2 [GB] | [FA]>[EG] [DF][EG] | [DF]2 [CE]2 | D4- | D4 |] %20
w: |||||
V:2
 D2 D>D | D3 B, | .A,4 | F,3 D | D3 D | A,3 A, | A,3 A, | A,2 D2 | D2 A,A, | A,2 D2 | D2 .A,2 | %11
 z2 z A, | A,A, A,A, | A,4- | A,4 | F, A,2 D | D3 B, | A,2 A,G, | F,4- | F,4 |] %20
V:3
 D,2 D,>D, | D,3 G,, | A,,2 A,,2 | D,3 F, | G,3 G, | z4 | D,3 D, | D,2 D,2 | D,3 D, | D,2 D,2 | %10
 .D,4 | z2 z D, | D,D, D,D, | z4 | z2 z A,, | D,3 D, | D,3 G,, | A,,2 A,,2 | D,4- | D,4 |] %20
V:4
 x4 | x4 | x4 | x4 | x4 | x4 | x4 | x4 | x4 | x4 | x4 | x4 | x4 | z2 z A,, | A,,A,, A,,A, | x4 | %16
 x4 | x4 | x4 | x4 |] %20

